assets/img/icons/duotone-icons/Devices/Homepod.svg

<?xml version="1.0" encoding="UTF-8"?>
<svg width="24px" height="24px" viewBox="0 0 24 24" version="1.1" xmlns="http://www.w3.org/2000/svg" xmlns:xlink="http://www.w3.org/1999/xlink">
    <!-- Generator: Sketch 52.2 (67145) - http://www.bohemiancoding.com/sketch -->
    <title>Stockholm-icons / Devices / Homepod</title>
    <desc>Created with Sketch.</desc>
    <g id="Stockholm-icons-/-Devices-/-Homepod" stroke="none" stroke-width="1" fill="none" fill-rule="evenodd">
        <rect id="bound" x="0" y="0" width="24" height="24"></rect>
        <path d="M17.9284376,4.46474822 C19.1973992,5.56488124 20,7.18871188 20,9 L20,16 C20,19.3137085 17.3137085,22 14,22 L10,22 C6.6862915,22 4,19.3137085 4,16 L4,9 C4,7.18871188 4.80260084,5.56488124 6.07156236,4.46474822 C6.51827272,5.90091027 9.0024302,7 12,7 C14.9975698,7 17.4817273,5.90091027 17.9284376,4.46474822 Z" id="Combined-Shape" fill="#335EEA" opacity="0.3"></path>
        <path d="M15.3482135,3.66753404 C14.5236045,3.25522953 13.3167437,3 12,3 C10.6832563,3 9.47639552,3.25522953 8.6517865,3.66753404 C8.42616493,3.78034482 8.24918686,3.89542836 8.12520418,4 C8.24918686,4.10457164 8.42616493,4.21965518 8.6517865,4.33246596 C9.47639552,4.74477047 10.6832563,5 12,5 C13.3167437,5 14.5236045,4.74477047 15.3482135,4.33246596 C15.5738351,4.21965518 15.7508131,4.10457164 15.8747958,4 C15.7508131,3.89542836 15.5738351,3.78034482 15.3482135,3.66753404 Z" id="Oval-45" fill="#335EEA"></path>
    </g>
</svg>

<svg width="24" height="24" viewBox="0 0 24 24" xmlns="http://www.w3.org/2000/svg"><g fill="none" fill-rule="evenodd"><path d="M0 0h24v24H0z"/><path d="M17.928 4.465A5.986 5.986 0 0120 9v7a6 6 0 01-6 6h-4a6 6 0 01-6-6V9c0-1.811.803-3.435 2.072-4.535C6.518 5.9 9.002 7 12 7c2.998 0 5.482-1.1 5.928-2.535z" fill="#335EEA" opacity=".3"/><path d="M15.348 3.668C14.524 3.255 13.317 3 12 3c-1.317 0-2.524.255-3.348.668A2.71 2.71 0 008.125 4c.124.105.301.22.527.332C9.476 4.745 10.683 5 12 5c1.317 0 2.524-.255 3.348-.668A2.71 2.71 0 0015.875 4a2.71 2.71 0 00-.527-.332z" fill="#335EEA"/></g></svg>
